X: 1
T: How High the Moon
M: c
L: 1/4
K: G
DGA|"Gmaj7"A2B2-|BDGA|"Gm7"_B4-|"Cm7"BC=FG|
"Fmaj7"G2A2-|AC=FG|"Fm7"_A4-|"Bb7"AD_E=F|
"Ebmaj7"GGGG|"Am7"G/A/-"D7"A/G/A|"Gm7"_B4-|"Am7b5"B>A-"D7b9"A/G/A|
"Gmaj7"=B4-|"Am7"BA"D7"Bc|"Bm7"dd"Bb7"dd|"Am7"d/x/D"D7"GA||
|"Gmaj7"A2B2-|BDGA|"Gm7"_B4-|"Cm7"BC=FG|
"Fmaj7"G2A2-|AC=FG|"Fm7"_A4-|"Bb7"AD_E=F|
"Ebmaj7"GGGG|"Am7"G/A/-"D7"A/G/A|"Gmaj7"=B4-|"Am7"BA"D7b9"Bc|
"Bm7"dd"Bb7"dd|"Am7"d/x/D"D7"GA|"G6"G4-|"(Am7"G4-"D7)"x2|]

